paginas/static/paginas/imagens/ia/synthesia-logo.svg

<svg width="191" height="40" viewBox="0 0 191 40" fill="none" xmlns="http://www.w3.org/2000/svg">
<path d="M47.7744 23.4933L50.5949 22.8507C50.8696 24.75 52.1898 25.7007 54.2421 25.7007C56.2945 25.7007 57.3993 24.812 57.3993 23.4633C57.3993 19.6013 48.2958 22.6633 48.2958 16.2633C48.2958 13.534 50.6575 11.604 54.1521 11.604C57.0626 11.604 59.6083 13.1673 60.0977 16.0487L57.4306 16.8147C57.1533 15.19 55.8657 14.3013 54.0581 14.3013C52.3111 14.3013 51.2076 15.1287 51.2076 16.2933C51.2076 19.7873 60.4658 16.6933 60.4658 23.22C60.4658 26.316 57.9494 28.4 54.1181 28.4C50.5949 28.3993 48.1738 26.5893 47.7744 23.4933Z" fill="#0F141E"/>
<path d="M81.6665 11.9993H84.7017V14.0847H84.9464C85.6205 12.7353 87.2134 11.6013 89.5471 11.6013C93.1664 11.6013 95.4027 14.2987 95.4027 17.7347V28.0013H92.3676V18.252C92.3676 15.9853 90.7126 14.452 88.6883 14.452C86.4519 14.452 84.7043 16.1986 84.7043 18.5286V27.9993H81.6692L81.6665 11.9993Z" fill="#0F141E"/>
<path d="M113.472 7.43335H116.507V14.0847H116.752C117.425 12.7654 119.086 11.6014 121.382 11.6014C124.999 11.6014 127.328 14.2987 127.328 17.7347V28.0013H124.293V18.252C124.293 15.9854 122.578 14.452 120.523 14.452C118.347 14.452 116.507 16.108 116.507 18.3753V27.9993H113.472V7.43335Z" fill="#0F141E"/>
<path d="M130.927 20.0306C130.927 14.9726 134.515 11.6013 138.805 11.6013C143.68 11.6013 146.53 15.068 146.53 19.846V20.7993H134.052C134.085 23.9253 135.986 25.7646 138.957 25.7646C140.952 25.7646 142.825 24.6613 143.373 22.6687L146.224 23.3733C145.243 26.5306 142.452 28.4 138.956 28.4C134.085 28.3993 130.927 24.9326 130.927 20.0306ZM143.433 18.4973C143.281 15.7693 141.226 14.2673 138.805 14.2673C136.351 14.2673 134.3 16.0453 134.085 18.4973H143.433Z" fill="#0F141E"/>
<path d="M149.451 23.4933L152.272 22.8507C152.546 24.75 153.867 25.7007 155.918 25.7007C157.97 25.7007 159.076 24.812 159.076 23.4633C159.076 19.6013 149.973 22.6633 149.973 16.2633C149.973 13.534 152.334 11.604 155.828 11.604C158.739 11.604 161.285 13.1673 161.774 16.0487L159.107 16.8147C158.83 15.19 157.542 14.3013 155.735 14.3013C153.987 14.3013 152.885 15.1287 152.885 16.2933C152.885 19.7873 162.142 16.6933 162.142 23.22C162.142 26.316 159.626 28.4 155.795 28.4C152.272 28.3993 149.85 26.5893 149.451 23.4933Z" fill="#0F141E"/>
<path d="M172.524 19.9994C172.524 15.1874 175.62 11.5994 180.035 11.5994C183.13 11.5994 184.6 13.4387 185.214 14.2967H185.459V11.9994H188.494V24.5054C188.494 24.9954 188.802 25.2387 189.294 25.2387H190.028V27.9994H187.851C186.533 27.9994 185.522 27.172 185.522 25.7927H185.308C184.756 26.5594 183.408 28.3974 180.218 28.3974C175.773 28.3994 172.524 24.8734 172.524 19.9994ZM185.551 20.0307C185.551 16.474 183.284 14.4214 180.554 14.4214C177.704 14.4214 175.59 16.7547 175.59 20.0307C175.59 23.402 177.796 25.608 180.586 25.608C183.62 25.608 185.551 23.066 185.551 20.0307Z" fill="#0F141E"/>
<path d="M166.248 12.858V27.9993H169.283V11.6013L166.248 12.858Z" fill="#0F141E"/>
<path d="M78.4696 11.9993H75.127L70.589 25.0879H70.3443L66.1436 11.9993H62.8311L68.532 27.9993H69.2894L69.2421 28.1219C68.7827 29.2553 68.1386 29.8073 66.8504 29.8073H63.9512V32.5653H66.8184C69.2721 32.5653 70.957 31.6159 71.7858 29.4706L78.4696 11.9993Z" fill="#0F141E"/>
<path d="M169.283 7.43335H166.248V10.468H169.283V7.43335Z" fill="#0F141E"/>
<path d="M109.418 14.636V11.9993H104.698V7.43335L101.848 8.61401V11.9993H98.75V14.636H101.663V23.31C101.663 26.62 103.655 27.9993 106.66 27.9993H109.236V25.3327H106.69C105.28 25.3327 104.698 24.72 104.698 23.2787V14.636H109.418Z" fill="#0F141E"/>
<g clip-path="url(#clip0_722_244)">
<path d="M7.99951 10.8984C7.35872 10.9091 6.73881 10.6706 6.27053 10.2331C5.80226 9.79564 5.52224 9.19341 5.48955 8.55347C5.45686 7.91352 5.67404 7.2859 6.09529 6.80299C6.51654 6.32008 7.10892 6.01964 7.74747 5.96505C11.7509 5.54804 15.4731 3.71279 18.2412 0.79105C18.4644 0.555327 18.732 0.365885 19.0285 0.233538C19.325 0.101192 19.6447 0.0285333 19.9693 0.0197117C20.2939 0.0108901 20.617 0.0660759 20.9203 0.182122C21.2235 0.298169 21.501 0.472799 21.7367 0.696046C21.9725 0.919294 22.162 1.18678 22.2943 1.48325C22.4267 1.77971 22.4994 2.09933 22.5082 2.42387C22.517 2.74841 22.4618 3.07151 22.3457 3.37473C22.2297 3.67794 22.055 3.95533 21.8317 4.19105C18.2521 7.97263 13.437 10.3483 8.25756 10.8884C8.17178 10.8963 8.08565 10.8997 7.99951 10.8984V10.8984Z" fill="url(#paint0_radial_722_244)"/>
<path d="M32.0444 29.1392C32.6852 29.1285 33.3051 29.367 33.7734 29.8045C34.2417 30.242 34.5217 30.8442 34.5544 31.4841C34.5871 32.1241 34.3699 32.7517 33.9487 33.2346C33.5274 33.7175 32.935 34.018 32.2965 34.0725C28.293 34.4896 24.5709 36.3248 21.8028 39.2465C21.5795 39.4823 21.312 39.6717 21.0155 39.8041C20.719 39.9364 20.3993 40.0091 20.0747 40.0179C19.7501 40.0267 19.4269 39.9715 19.1237 39.8555C18.8204 39.7394 18.543 39.5648 18.3072 39.3415C18.0715 39.1183 17.882 38.8508 17.7496 38.5544C17.6173 38.2579 17.5446 37.9383 17.5358 37.6137C17.5269 37.2892 17.5821 36.9661 17.6982 36.6629C17.8143 36.3597 17.9889 36.0823 18.2122 35.8465C21.7918 32.065 26.6069 29.6893 31.7864 29.1492C31.8722 29.1413 31.9583 29.1379 32.0444 29.1392V29.1392Z" fill="url(#paint1_radial_722_244)"/>
<path d="M29.1441 7.99813C29.1333 7.35745 29.3719 6.73763 29.8094 6.26943C30.247 5.80123 30.8493 5.52126 31.4894 5.48857C32.1294 5.45588 32.7571 5.67303 33.2401 6.09422C33.7231 6.5154 34.0236 7.10768 34.0782 7.74613C34.4953 11.7489 36.3308 15.4705 39.253 18.2381C39.4888 18.4614 39.6782 18.7289 39.8106 19.0253C39.943 19.3218 40.0157 19.6414 40.0245 19.966C40.0333 20.2905 39.9781 20.6136 39.862 20.9168C39.746 21.22 39.5713 21.4974 39.348 21.7331C39.1248 21.9689 38.8572 22.1583 38.5607 22.2906C38.2642 22.423 37.9445 22.4957 37.6199 22.5045C37.2953 22.5133 36.9722 22.4581 36.6689 22.3421C36.3657 22.226 36.0882 22.0514 35.8525 21.8281C32.0703 18.2491 29.6942 13.4348 29.1541 8.25613C29.1461 8.17037 29.1428 8.08425 29.1441 7.99813V7.99813Z" fill="url(#paint2_radial_722_244)"/>
<path d="M10.8999 32.0392C10.9106 32.6799 10.6721 33.2997 10.2345 33.7679C9.79697 34.2361 9.19464 34.5161 8.5546 34.5488C7.91455 34.5815 7.28682 34.3643 6.80383 33.9431C6.32085 33.522 6.02036 32.9297 5.96576 32.2912C5.54868 28.2884 3.71314 24.5668 0.790931 21.7992C0.555171 21.576 0.365698 21.3085 0.23333 21.012C0.100963 20.7156 0.0282926 20.3959 0.0194696 20.0714C0.0106467 19.7468 0.0658413 19.4237 0.181906 19.1205C0.297971 18.8173 0.47263 18.5399 0.695913 18.3042C0.919196 18.0685 1.18673 17.879 1.48324 17.7467C1.77975 17.6144 2.09942 17.5417 2.42402 17.5329C2.74861 17.524 3.07176 17.5792 3.37502 17.6953C3.67828 17.8113 3.95572 17.986 4.19148 18.2092C7.97367 21.7883 10.3498 26.6026 10.8899 31.7812C10.8978 31.867 10.9012 31.9531 10.8999 32.0392V32.0392Z" fill="url(#paint3_radial_722_244)"/>
<path d="M17.971 5.06993C17.5103 4.62449 17.2406 4.01755 17.2189 3.37714C17.1972 2.73673 17.4251 2.11292 17.8546 1.6373C18.284 1.16167 18.8815 0.871423 19.5209 0.827775C20.1603 0.784127 20.7916 0.990495 21.2817 1.40334C24.4075 3.93888 28.3374 5.27271 32.3611 5.16374C32.6857 5.15492 33.0088 5.2101 33.3121 5.32615C33.6153 5.4422 33.8928 5.61683 34.1285 5.84008C34.3643 6.06332 34.5538 6.33081 34.6861 6.62727C34.8185 6.92373 34.8912 7.24336 34.9 7.5679C34.9088 7.89244 34.8536 8.21554 34.7376 8.51875C34.6215 8.82197 34.4468 9.09935 34.2235 9.33507C34.0003 9.5708 33.7327 9.76024 33.4362 9.89258C33.1397 10.0249 32.82 10.0976 32.4954 10.1064C27.2899 10.2496 22.2049 8.52527 18.1605 5.24529C18.0943 5.19027 18.031 5.13173 17.971 5.06993V5.06993Z" fill="url(#paint4_radial_722_244)"/>
<path d="M22.0729 34.9677C22.5336 35.4131 22.8033 36.02 22.825 36.6605C22.8467 37.3009 22.6188 37.9247 22.1894 38.4003C21.7599 38.8759 21.1625 39.1662 20.5231 39.2098C19.8837 39.2535 19.2523 39.0471 18.7622 38.6343C15.6364 36.0987 11.7065 34.7649 7.68289 34.8739C7.35829 34.8827 7.03514 34.8275 6.73188 34.7114C6.42862 34.5954 6.15119 34.4208 5.91543 34.1975C5.67967 33.9743 5.49019 33.7068 5.35783 33.4103C5.22546 33.1139 5.15278 32.7942 5.14396 32.4697C5.13514 32.1452 5.19034 31.8221 5.3064 31.5188C5.42247 31.2156 5.59713 30.9382 5.82041 30.7025C6.04369 30.4668 6.31123 30.2774 6.60773 30.145C6.90424 30.0127 7.22392 29.94 7.54851 29.9312C12.7541 29.788 17.839 31.5123 21.8834 34.7923C21.9497 34.8473 22.0129 34.9059 22.0729 34.9677V34.9677Z" fill="url(#paint5_radial_722_244)"/>
<path d="M34.9735 17.9681C35.419 17.5074 36.026 17.2378 36.6665 17.2161C37.307 17.1944 37.931 17.4222 38.4067 17.8516C38.8824 18.281 39.1727 18.8784 39.2163 19.5177C39.26 20.157 39.0536 20.7882 38.6406 21.2783C36.1047 24.4035 34.7706 28.3328 34.8796 32.3558C34.8885 32.6803 34.8333 33.0034 34.7172 33.3066C34.6011 33.6099 34.4265 33.8872 34.2032 34.123C33.9799 34.3587 33.7124 34.5481 33.4159 34.6805C33.1194 34.8128 32.7997 34.8855 32.4751 34.8943C32.1505 34.9031 31.8273 34.8479 31.5241 34.7319C31.2208 34.6159 30.9434 34.4412 30.7076 34.218C30.4719 33.9947 30.2824 33.7272 30.15 33.4308C30.0177 33.1343 29.945 32.8147 29.9362 32.4901C29.7929 27.2854 31.5176 22.2013 34.7981 18.1576C34.8531 18.0913 34.9117 18.028 34.9735 17.9681V17.9681Z" fill="url(#paint6_radial_722_244)"/>
<path d="M5.07048 22.0695C4.62497 22.5302 4.01793 22.7998 3.37742 22.8215C2.7369 22.8432 2.11299 22.6154 1.63729 22.186C1.16159 21.7566 0.871294 21.1592 0.827639 20.5199C0.783985 19.8806 0.990386 19.2494 1.4033 18.7593C3.93925 15.6341 5.27329 11.7048 5.1643 7.68181C5.15548 7.35727 5.21068 7.03417 5.32674 6.73096C5.44281 6.42774 5.61747 6.15035 5.84075 5.91463C6.06403 5.67891 6.33156 5.48947 6.62807 5.35712C6.92458 5.22477 7.24426 5.15211 7.56885 5.14329C7.89344 5.13447 8.2166 5.18966 8.51986 5.30571C8.82312 5.42175 9.10055 5.59638 9.33631 5.81963C9.57207 6.04288 9.76154 6.31037 9.89391 6.60683C10.0263 6.90329 10.099 7.22292 10.1078 7.54746C10.251 12.7522 8.52637 17.8363 5.24586 21.88C5.19084 21.9463 5.13229 22.0096 5.07048 22.0695V22.0695Z" fill="url(#paint7_radial_722_244)"/>
</g>
<defs>
<radialGradient id="paint0_radial_722_244" cx="0" cy="0" r="1" gradientUnits="userSpaceOnUse" gradientTransform="translate(20.1668 2.40438) scale(15.5478 15.5453)">
<stop offset="0.15" stop-color="#004BFF"/>
<stop offset="1" stop-color="#004BFF" stop-opacity="0.1"/>
</radialGradient>
<radialGradient id="paint1_radial_722_244" cx="0" cy="0" r="1" gradientUnits="userSpaceOnUse" gradientTransform="translate(19.8771 37.6332) rotate(-180) scale(15.5478 15.5453)">
<stop offset="0.15" stop-color="#004BFF"/>
<stop offset="1" stop-color="#004BFF" stop-opacity="0.1"/>
</radialGradient>
<radialGradient id="paint2_radial_722_244" cx="0" cy="0" r="1" gradientUnits="userSpaceOnUse" gradientTransform="translate(37.6394 20.1635) rotate(90) scale(15.5453 15.5478)">
<stop offset="0.15" stop-color="#004BFF"/>
<stop offset="1" stop-color="#004BFF" stop-opacity="0.1"/>
</radialGradient>
<radialGradient id="paint3_radial_722_244" cx="0" cy="0" r="1" gradientUnits="userSpaceOnUse" gradientTransform="translate(2.40452 19.8739) rotate(-90) scale(15.5453 15.5478)">
<stop offset="0.15" stop-color="#004BFF"/>
<stop offset="1" stop-color="#004BFF" stop-opacity="0.1"/>
</radialGradient>
<radialGradient id="paint4_radial_722_244" cx="0" cy="0" r="1" gradientUnits="userSpaceOnUse" gradientTransform="translate(32.5817 7.66595) rotate(44.9954) scale(15.5466)">
<stop offset="0.15" stop-color="#004BFF"/>
<stop offset="1" stop-color="#004BFF" stop-opacity="0.1"/>
</radialGradient>
<radialGradient id="paint5_radial_722_244" cx="0" cy="0" r="1" gradientUnits="userSpaceOnUse" gradientTransform="translate(7.46223 32.3716) rotate(-135.005) scale(15.5466)">
<stop offset="0.15" stop-color="#004BFF"/>
<stop offset="1" stop-color="#004BFF" stop-opacity="0.1"/>
</radialGradient>
<radialGradient id="paint6_radial_722_244" cx="0" cy="0" r="1" gradientUnits="userSpaceOnUse" gradientTransform="translate(32.377 32.5764) rotate(135.005) scale(15.5466)">
<stop offset="0.15" stop-color="#004BFF"/>
<stop offset="1" stop-color="#004BFF" stop-opacity="0.1"/>
</radialGradient>
<radialGradient id="paint7_radial_722_244" cx="0" cy="0" r="1" gradientUnits="userSpaceOnUse" gradientTransform="translate(7.66692 7.46119) rotate(-44.9954) scale(15.5466)">
<stop offset="0.15" stop-color="#004BFF"/>
<stop offset="1" stop-color="#004BFF" stop-opacity="0.1"/>
</radialGradient>
<clipPath id="clip0_722_244">
<rect width="40.0064" height="40" fill="white"/>
</clipPath>
</defs>
</svg>

<svg width="191" height="40" fill="none" xmlns="http://www.w3.org/2000/svg"><path d="m47.774 23.493 2.82-.642c.276 1.899 1.596 2.85 3.648 2.85 2.053 0 3.157-.889 3.157-2.238 0-3.862-9.103-.8-9.103-7.2 0-2.729 2.361-4.659 5.856-4.659 2.91 0 5.456 1.563 5.946 4.445l-2.667.766c-.278-1.625-1.565-2.514-3.373-2.514-1.747 0-2.85.828-2.85 1.992 0 3.494 9.258.4 9.258 6.927 0 3.096-2.517 5.18-6.348 5.18-3.523 0-5.944-1.81-6.344-4.907ZM81.666 12h3.036v2.085h.244c.675-1.35 2.267-2.484 4.601-2.484 3.62 0 5.856 2.698 5.856 6.134V28h-3.035v-9.749c0-2.267-1.655-3.8-3.68-3.8-2.236 0-3.984 1.747-3.984 4.077v9.47H81.67l-.002-16ZM113.472 7.433h3.035v6.652h.245c.673-1.32 2.334-2.484 4.63-2.484 3.617 0 5.946 2.698 5.946 6.134V28h-3.035v-9.749c0-2.267-1.715-3.8-3.77-3.8-2.176 0-4.016 1.656-4.016 3.923V28h-3.035V7.433ZM130.927 20.03c0-5.057 3.588-8.429 7.878-8.429 4.875 0 7.725 3.467 7.725 8.245v.953h-12.478c.033 3.126 1.934 4.966 4.905 4.966 1.995 0 3.868-1.104 4.416-3.096l2.851.704c-.981 3.158-3.772 5.027-7.268 5.027-4.871 0-8.029-3.467-8.029-8.37Zm12.506-1.533c-.152-2.728-2.207-4.23-4.628-4.23-2.454 0-4.505 1.778-4.72 4.23h9.348ZM149.451 23.493l2.821-.642c.274 1.899 1.595 2.85 3.646 2.85 2.052 0 3.158-.889 3.158-2.238 0-3.862-9.103-.8-9.103-7.2 0-2.729 2.361-4.659 5.855-4.659 2.911 0 5.457 1.563 5.946 4.445l-2.667.766c-.277-1.625-1.565-2.514-3.372-2.514-1.748 0-2.85.828-2.85 1.992 0 3.494 9.257.4 9.257 6.927 0 3.096-2.516 5.18-6.347 5.18-3.523 0-5.945-1.81-6.344-4.907ZM172.524 20c0-4.813 3.096-8.4 7.511-8.4 3.095 0 4.565 1.839 5.179 2.697h.245v-2.298h3.035v12.506c0 .49.308.734.8.734h.734v2.76h-2.177c-1.318 0-2.329-.827-2.329-2.206h-.214c-.552.766-1.9 2.604-5.09 2.604-4.445.002-7.694-3.524-7.694-8.398Zm13.027.03c0-3.556-2.267-5.609-4.997-5.609-2.85 0-4.964 2.334-4.964 5.61 0 3.371 2.206 5.577 4.996 5.577 3.034 0 4.965-2.542 4.965-5.577ZM166.248 12.858v15.141h3.035V11.601l-3.035 1.257ZM78.47 12h-3.343l-4.538 13.088h-.245l-4.2-13.089H62.83l5.701 16h.757l-.047.123c-.46 1.133-1.103 1.685-2.392 1.685h-2.899v2.758h2.867c2.454 0 4.139-.95 4.968-3.094l6.684-17.472ZM169.283 7.433h-3.035v3.035h3.035V7.433ZM109.418 14.636v-2.637h-4.72V7.433l-2.85 1.181v3.385H98.75v2.637h2.913v8.674c0 3.31 1.992 4.69 4.997 4.69h2.576v-2.667h-2.546c-1.41 0-1.992-.613-1.992-2.054v-8.643h4.72Z" fill="#0F141E"/><g clip-path="url(#a)"><path d="M8 10.898a2.472 2.472 0 0 1-.253-4.933A16.862 16.862 0 0 0 18.241.791a2.472 2.472 0 0 1 3.59 3.4 21.805 21.805 0 0 1-13.573 6.697 2.416 2.416 0 0 1-.258.01Z" fill="url(#b)"/><path d="M32.044 29.14a2.472 2.472 0 0 1 .253 4.932 16.862 16.862 0 0 0-10.494 5.174 2.473 2.473 0 0 1-3.59-3.4 21.805 21.805 0 0 1 13.573-6.697c.086-.008.172-.011.258-.01Z" fill="url(#c)"/><path d="M29.144 7.998a2.471 2.471 0 0 1 4.934-.252 16.857 16.857 0 0 0 5.175 10.492 2.473 2.473 0 1 1-3.4 3.59 21.798 21.798 0 0 1-6.699-13.572 2.39 2.39 0 0 1-.01-.258Z" fill="url(#d)"/><path d="M10.9 32.04a2.471 2.471 0 0 1-4.934.251A16.857 16.857 0 0 0 .79 21.8a2.471 2.471 0 1 1 3.4-3.59 21.799 21.799 0 0 1 6.699 13.572c.008.086.011.172.01.258Z" fill="url(#e)"/><path d="M17.971 5.07a2.471 2.471 0 0 1 3.31-3.667 16.863 16.863 0 0 0 11.08 3.76 2.473 2.473 0 1 1 .134 4.943 21.806 21.806 0 0 1-14.334-4.86 2.42 2.42 0 0 1-.19-.176Z" fill="url(#f)"/><path d="M22.073 34.968a2.47 2.47 0 0 1-3.31 3.666 16.862 16.862 0 0 0-11.08-3.76 2.472 2.472 0 0 1-.134-4.943 21.806 21.806 0 0 1 14.334 4.861 2.4 2.4 0 0 1 .19.176Z" fill="url(#g)"/><path d="M34.974 17.968a2.471 2.471 0 0 1 3.667 3.31 16.856 16.856 0 0 0-3.761 11.078 2.47 2.47 0 0 1-2.405 2.538 2.474 2.474 0 0 1-2.539-2.404 21.797 21.797 0 0 1 4.862-14.332c.055-.067.114-.13.175-.19Z" fill="url(#h)"/><path d="M5.07 22.07a2.472 2.472 0 0 1-3.667-3.31A16.856 16.856 0 0 0 5.164 7.681a2.472 2.472 0 0 1 4.944-.135A21.798 21.798 0 0 1 5.246 21.88c-.055.066-.114.13-.176.19Z" fill="url(#i)"/></g><defs><radialGradient id="b" cx="0" cy="0" r="1" gradientUnits="userSpaceOnUse" gradientTransform="matrix(15.5478 0 0 15.5453 20.167 2.404)"><stop offset=".15" stop-color="#004BFF"/><stop offset="1" stop-color="#004BFF" stop-opacity=".1"/></radialGradient><radialGradient id="c" cx="0" cy="0" r="1" gradientUnits="userSpaceOnUse" gradientTransform="matrix(-15.5478 0 0 -15.5453 19.877 37.633)"><stop offset=".15" stop-color="#004BFF"/><stop offset="1" stop-color="#004BFF" stop-opacity=".1"/></radialGradient><radialGradient id="d" cx="0" cy="0" r="1" gradientUnits="userSpaceOnUse" gradientTransform="matrix(0 15.5453 -15.5478 0 37.64 20.163)"><stop offset=".15" stop-color="#004BFF"/><stop offset="1" stop-color="#004BFF" stop-opacity=".1"/></radialGradient><radialGradient id="e" cx="0" cy="0" r="1" gradientUnits="userSpaceOnUse" gradientTransform="matrix(0 -15.5453 15.5478 0 2.405 19.874)"><stop offset=".15" stop-color="#004BFF"/><stop offset="1" stop-color="#004BFF" stop-opacity=".1"/></radialGradient><radialGradient id="f" cx="0" cy="0" r="1" gradientUnits="userSpaceOnUse" gradientTransform="rotate(44.995 7.036 43.167) scale(15.5466)"><stop offset=".15" stop-color="#004BFF"/><stop offset="1" stop-color="#004BFF" stop-opacity=".1"/></radialGradient><radialGradient id="g" cx="0" cy="0" r="1" gradientUnits="userSpaceOnUse" gradientTransform="rotate(-135.005 10.435 14.64) scale(15.5466)"><stop offset=".15" stop-color="#004BFF"/><stop offset="1" stop-color="#004BFF" stop-opacity=".1"/></radialGradient><radialGradient id="h" cx="0" cy="0" r="1" gradientUnits="userSpaceOnUse" gradientTransform="rotate(135.005 9.443 22.993) scale(15.5466)"><stop offset=".15" stop-color="#004BFF"/><stop offset="1" stop-color="#004BFF" stop-opacity=".1"/></radialGradient><radialGradient id="i" cx="0" cy="0" r="1" gradientUnits="userSpaceOnUse" gradientTransform="rotate(-44.995 12.84 -5.525) scale(15.5466)"><stop offset=".15" stop-color="#004BFF"/><stop offset="1" stop-color="#004BFF" stop-opacity=".1"/></radialGradient><clipPath id="a"><path fill="#fff" d="M0 0h40.006v40H0z"/></clipPath></defs></svg>
